assets/svg/ic_home.svg

<svg height="64" viewBox="0 0 1024 1024" width="64" xmlns="http://www.w3.org/2000/svg"><path d="m96 480c-9.6 0-19.2-3.2-25.6-12.8-12.8-12.8-9.6-35.2 3.2-44.8l377.6-310.4c35.2-25.6 86.4-25.6 118.4 0l377.6 307.2c12.8 9.6 16 32 3.2 44.8s-32 16-44.8 3.2l-374.4-300.8c-9.6-6.4-28.8-6.4-38.4 0l-377.6 307.2c-6.4 6.4-12.8 6.4-19.2 6.4zm720 448h-208c-19.2 0-32-12.8-32-32v-150.4c0-22.4-38.4-44.8-67.2-44.8s-64 19.2-64 44.8v150.4c0 19.2-12.8 32-32 32h-201.6c-48 0-83.2-35.2-83.2-80v-304c0-19.2 12.8-32 32-32s32 12.8 32 32v304c0 9.6 6.4 16 19.2 16h172.8v-118.4c0-64 67.2-108.8 128-108.8s131.2 44.8 131.2 108.8v118.4h176c9.6 0 16 0 16-19.2v-300.8c0-19.2 12.8-32 32-32s32 12.8 32 32v304c-3.2 48-35.2 80-83.2 80z" fill="#666"/></svg>

<?xml version="1.0" standalone="no"?><!DOCTYPE svg PUBLIC "-//W3C//DTD SVG 1.1//EN" "http://www.w3.org/Graphics/SVG/1.1/DTD/svg11.dtd"><svg t="1636362323962" class="icon" viewBox="0 0 1024 1024" version="1.1" xmlns="http://www.w3.org/2000/svg" p-id="6030" xmlns:xlink="http://www.w3.org/1999/xlink" width="64" height="64"><defs><style type="text/css"></style></defs><path d="M96 480c-9.6 0-19.2-3.2-25.6-12.8-12.8-12.8-9.6-35.2 3.2-44.8l377.6-310.4c35.2-25.6 86.4-25.6 118.4 0l377.6 307.2c12.8 9.6 16 32 3.2 44.8-12.8 12.8-32 16-44.8 3.2L531.2 166.4c-9.6-6.4-28.8-6.4-38.4 0L115.2 473.6c-6.4 6.4-12.8 6.4-19.2 6.4zM816 928H608c-19.2 0-32-12.8-32-32v-150.4c0-22.4-38.4-44.8-67.2-44.8-28.8 0-64 19.2-64 44.8V896c0 19.2-12.8 32-32 32H211.2C163.2 928 128 892.8 128 848V544c0-19.2 12.8-32 32-32s32 12.8 32 32v304c0 9.6 6.4 16 19.2 16H384v-118.4c0-64 67.2-108.8 128-108.8s131.2 44.8 131.2 108.8V864h176c9.6 0 16 0 16-19.2V544c0-19.2 12.8-32 32-32s32 12.8 32 32v304C896 896 864 928 816 928z" fill="#666666" p-id="6031"></path></svg>
